X:44
T: ES WAR EINMAL EIN FEINER KNAB
N: Z0045
O: Europa, Mitteleuropa, Deutschland, Franken
R: Sagen - Lied, Romanze, Tod
M: 3/4
L: 1/8
K: E
EEG | B2GBcA | A2G
EEG | B2GBcA | A2G
BBB | G2FGAF | F2E
BBB | G2FGAF | F2E

